F[BALLADE
CUT[Waise und Stiefmutter
    Ich stand auf hohem Felsen,]
CNR[sah hinab ins tiefe Tal,]
REG[Mitteleuropa, Oesterreich / Italien, Sued - Tirol]
SRC[5, S. 300
    ????]
KEY[Q1116H 16  G 6/8]
MEL[-5_  1__1_1_-7_1_  2_2_0__.
    -5-5  2__2_2_1_2_  3__0__.
    5_  5__4_2__4_  4__3_1__
    3_  3_2_3_4_3_2_  1__0__. //] >>
FCT[???]
CMT[Melodievergleich zu Q0116, anderes Lied.]
